icons/liver-alt_fill.svg

<svg width="48" height="48" viewBox="0 0 48 48" fill="none" xmlns="http://www.w3.org/2000/svg">
<path fill-rule="evenodd" clip-rule="evenodd" d="M36.5798 6.75376C37.4241 6.31517 38.243 6 38.9483 6C39.7758 6 40.5406 6.24955 41.1358 6.82771C41.7465 7.42095 42 8.20652 42 9.05172C42 10.7069 41.7674 12.3437 41.3041 13.9597C40.8476 15.5518 40.2674 16.9622 39.555 18.1803C38.8661 19.3581 38.1217 20.4176 37.3198 21.3549C36.5279 22.2807 35.7546 23.0215 34.998 23.5463C34.2946 24.034 33.5374 24.4138 32.7931 24.4138C31.9535 24.4138 31.1359 24.026 30.3739 23.4664C29.5957 22.895 28.862 22.1427 28.1669 21.2311C27.4318 20.267 26.8367 19.0663 26.3632 17.6573C25.8789 16.2157 25.6379 14.7133 25.6379 13.1552C25.6379 12.8015 25.6486 12.4933 25.6768 12.2529C25.7163 11.9178 25.8353 11.5947 25.9839 11.2974C26.2449 10.7755 26.6961 10.4568 27.1975 10.2957C27.635 10.1551 28.1459 10.1034 28.6897 10.1034C29.4551 10.1034 30.3405 9.92491 31.3571 9.53011C32.4109 9.12089 33.3073 8.67806 34.0544 8.20624C34.8894 7.67885 35.7312 7.1946 36.5798 6.75376ZM12.1413 14.8228C14.0237 13.8235 16.0772 13.3276 18.2845 13.3276C18.7592 13.3276 19.1388 13.3329 19.4161 13.3445C19.6852 13.3557 20.0637 13.3777 20.547 13.4099C21.0617 13.4443 21.5284 13.5101 21.9126 13.6283C22.2465 13.731 22.5876 13.8685 22.9349 14.0361C23.3839 14.2529 23.7756 14.5695 24.0436 15.0098C24.2992 15.4297 24.4138 15.8969 24.4138 16.3793C24.4138 17.3941 24.6532 18.4752 25.1624 19.6307C25.6762 20.7967 26.3697 21.8883 27.2479 22.9064C27.4696 23.162 27.8287 23.4982 28.3522 23.919C28.9083 24.3661 29.3729 24.7628 29.74 25.1069C29.9456 25.2997 30.1371 25.5102 30.283 25.7382C30.4247 25.9596 30.569 26.2686 30.569 26.6379C30.569 27.4987 30.0534 28.2947 29.4245 28.9807C28.7908 29.672 28.0604 30.3269 27.2374 30.947C26.4789 31.5185 25.5873 32.2418 24.5608 33.1201C23.5531 33.9824 22.7442 34.7731 22.1243 35.4921C21.5293 36.2034 21.0175 37.0339 20.5932 37.9911C20.1404 39.0125 19.8403 39.7942 19.6769 40.3516C19.582 40.6753 19.4838 40.9653 19.3794 41.1896C19.3296 41.2966 19.2553 41.4397 19.1486 41.5715C19.0799 41.6562 18.7918 42 18.2845 42C17.3776 42 16.3946 41.5773 15.3956 40.9488C14.352 40.2921 13.3034 39.3854 12.2471 38.2513C11.1944 37.1211 10.2013 35.8679 9.26669 34.4935C8.30451 33.0785 7.52383 31.4968 6.92059 29.7541C6.31182 27.9954 6 26.2712 6 24.5862C6 22.5353 6.55721 20.6334 7.66426 18.9021C8.76634 17.1787 10.2661 15.8183 12.1413 14.8228Z" fill="black"/>
</svg>

<svg
  xmlns="http://www.w3.org/2000/svg"
  width="24"
  height="24"
  viewBox="0 0 24 24"
  fill="none"
  stroke="currentColor"
  stroke-width="2"
  stroke-linecap="round"
  stroke-linejoin="round"
>
  <path
    fill-rule="evenodd"
    d="M36.58 6.754C37.424 6.315 38.243 6 38.948 6c.828 0 1.593.25 2.188.828.61.593.864 1.379.864 2.224q0 2.483-.696 4.908c-.456 1.592-1.037 3.002-1.749 4.22a22 22 0 0 1-2.235 3.175c-.792.926-1.565 1.666-2.322 2.191-.703.488-1.46.868-2.205.868-.84 0-1.657-.388-2.42-.948-.777-.571-1.511-1.323-2.206-2.235-.735-.964-1.33-2.165-1.804-3.574a14 14 0 0 1-.725-4.502c0-.353.01-.662.039-.902a2.9 2.9 0 0 1 .307-.956c.26-.522.712-.84 1.213-1.001.438-.14.949-.193 1.493-.193.765 0 1.65-.178 2.667-.573 1.054-.41 1.95-.852 2.697-1.324a35 35 0 0 1 2.526-1.452M12.14 14.823c1.883-1 3.936-1.495 6.144-1.495.474 0 .854.005 1.131.017q.406.016 1.131.065c.515.034.981.1 1.366.218q.501.155 1.022.408c.449.217.84.534 1.109.974.255.42.37.887.37 1.37 0 1.014.24 2.095.748 3.25a13 13 0 0 0 2.086 3.276c.222.256.58.592 1.104 1.013q.835.671 1.388 1.188a3.4 3.4 0 0 1 .543.631c.142.222.286.53.286.9 0 .86-.516 1.657-1.145 2.343a16 16 0 0 1-2.187 1.966 57 57 0 0 0-2.676 2.173c-1.008.862-1.817 1.653-2.437 2.372a10.5 10.5 0 0 0-1.53 2.5c-.454 1.02-.754 1.802-.917 2.36a6 6 0 0 1-.298.838c-.05.107-.124.25-.23.382-.07.084-.357.428-.864.428-.907 0-1.89-.423-2.89-1.051-1.043-.657-2.092-1.564-3.148-2.698a31.4 31.4 0 0 1-2.98-3.758Q7.825 32.37 6.92 29.754C6.31 27.995 6 26.271 6 24.586c0-2.05.557-3.953 1.664-5.684 1.102-1.723 2.602-3.084 4.477-4.08"
    clip-rule="evenodd"
  />
</svg>
